src/parts/clothes/CollarSweater.svg

<svg>
  <g
    id="Clothing/Collar-+-Sweater"
    transform="translate(0.000000, 170.000000)"
  >
    <defs>
      <path
        id="CollarSweater-path1"
        d="M105.192402,29.0517235 L104,29.0517235 L104,29.0517235 C64.235498,29.0517235 32,61.2872215 32,101.051724 L32,110 L232,110 L232,101.051724 C232,61.2872215 199.764502,29.0517235 160,29.0517235 L160,29.0517235 L158.807598,29.0517235 C158.934638,30.0353144 159,31.0364513 159,32.0517235 C159,45.8588423 146.911688,57.0517235 132,57.0517235 C117.088312,57.0517235 105,45.8588423 105,32.0517235 C105,31.0364513 105.065362,30.0353144 105.192402,29.0517235 Z"
      />
    </defs>
    <mask
      id="CollarSweater-mask1"
      fill="white"
    >
      <use href="#CollarSweater-path1" />
    </mask>
    <use
      class="CustomColor"
      fill="var(--avataaar-shirt-color)"
      href="#CollarSweater-path1"
    />
    <path
      id="Collar"
      d="M156,22.2794906 C162.181647,26.8351858 166,33.1057265 166,40.027915 C166,47.2334941 161.862605,53.7329769 155.228997,58.3271669 L149.57933,53.8764929 L145,54.207887 L146,51.0567821 L145.922229,50.995516 C152.022491,47.8530505 156,42.7003578 156,36.8768102 L156,22.2794906 Z M108,21.5714994 C101.232748,26.1740081 97,32.7397769 97,40.027915 C97,47.4261549 101.361602,54.080035 108.308428,58.6915723 L114.42067,53.8764929 L119,54.207887 L118,51.0567821 L118.077771,50.995516 C111.977509,47.8530505 108,42.7003578 108,36.8768102 L108,21.5714994 Z"
      fill="#F2F2F2"
      fillRule="evenodd"
    />
  </g>
</svg>

<svg>
  <g id="Clothing/Collar-+-Sweater" transform="translate(0 170)">
    <defs>
      <path id="CollarSweater-path1" d="M105.192 29.052H104c-39.765 0-72 32.235-72 72V110h200v-8.948c0-39.765-32.235-72-72-72h-1.192c.127.983.192 1.984.192 3 0 13.807-12.088 25-27 25s-27-11.193-27-25c0-1.016.065-2.017.192-3Z"/>
    </defs>
    <mask id="CollarSweater-mask1" fill="#fff">
      <use href="#CollarSweater-path1"/>
    </mask>
    <use fill="var(--avataaar-shirt-color)" class="CustomColor" href="#CollarSweater-path1"/>
    <path id="Collar" fill="#F2F2F2" d="M156 22.28c6.182 4.555 10 10.826 10 17.748 0 7.205-4.137 13.705-10.771 18.3l-5.65-4.452-4.579.332 1-3.151-.078-.061C152.022 47.853 156 42.7 156 36.876V22.28Zm-48-.709c-6.767 4.603-11 11.169-11 18.457 0 7.398 4.362 14.052 11.308 18.664l6.113-4.816 4.579.332-1-3.151.078-.061C111.978 47.853 108 42.7 108 36.876V21.572Z"/>
  </g>
</svg>
